teeny/solid/send-right.svg

<svg width="15" height="15" viewBox="0 0 15 15" fill="none" xmlns="http://www.w3.org/2000/svg">
<path fill-rule="evenodd" clip-rule="evenodd" d="M1 14L1 1H2L2 14H1ZM9.85355 3.14645L14.2071 7.5L9.85355 11.8536L9.14645 11.1464L12.2929 8H3V7H12.2929L9.14645 3.85355L9.85355 3.14645Z" fill="black"/>
</svg>

<svg viewBox="0 0 15 15" xmlns="http://www.w3.org/2000/svg"><path fill-rule="evenodd" d="M1 14V1h1v13H1ZM9.85 3.14l4.35 4.35 -4.36 4.35 -.71-.71 3.14-3.15h-9.3v-1h9.29L9.11 3.83l.7-.71Z"/></svg>
